src/assets/img/twitter-logo.svg

<svg version="1.2" baseProfile="tiny-ps" xmlns="http://www.w3.org/2000/svg" width="40" height="40"><style></style><g id="Login"><path id="Shape 2" d="M20.01 0C8.97 0 .02 8.95.02 19.99c0 11.05 8.95 20 19.99 20S40 31.04 40 19.99C40 8.95 31.05 0 20.01 0m7.95 15.92c.01.17.01.35.01.53 0 5.42-4.12 11.67-11.67 11.67-2.32 0-4.47-.68-6.29-1.84.32.03.65.05.98.05 1.92 0 3.69-.65 5.1-1.75a4.13 4.13 0 0 1-3.84-2.85 4.322 4.322 0 0 0 1.86-.07 4.107 4.107 0 0 1-3.29-4.02v-.06c.55.31 1.18.5 1.85.52a4.104 4.104 0 0 1-1.82-3.42c0-.75.2-1.45.56-2.06 2.02 2.48 5.04 4.12 8.45 4.29a4.106 4.106 0 0 1 6.99-3.74 8.36 8.36 0 0 0 2.6-1c-.3.96-.95 1.76-1.8 2.27.83-.1 1.62-.32 2.36-.65-.55.83-1.25 1.55-2.05 2.13" style="fill:#21a3f2"/></g></svg>

<svg version="1.2" baseProfile="tiny-ps" xmlns="http://www.w3.org/2000/svg" viewBox="0 0 40 40" width="40" height="40">
	<title>Login</title>
	<style>
		tspan { white-space:pre }
		.shp0 { fill: #21a3f2 } 
	</style>
	<g id="Login">
		<path id="Shape 2" class="shp0" d="M20.01 0C8.97 0 0.02 8.95 0.02 19.99C0.02 31.04 8.97 39.99 20.01 39.99C31.05 39.99 40 31.04 40 19.99C40 8.95 31.05 0 20.01 0M27.96 15.92C27.97 16.09 27.97 16.27 27.97 16.45C27.97 21.87 23.85 28.12 16.3 28.12C13.98 28.12 11.83 27.44 10.01 26.28C10.33 26.31 10.66 26.33 10.99 26.33C12.91 26.33 14.68 25.68 16.09 24.58C14.29 24.54 12.78 23.36 12.25 21.73C12.5 21.78 12.76 21.8 13.03 21.8C13.4 21.8 13.76 21.75 14.11 21.66C12.23 21.28 10.82 19.62 10.82 17.64C10.82 17.62 10.82 17.6 10.82 17.58C11.37 17.89 12 18.08 12.67 18.1C11.57 17.36 10.85 16.11 10.85 14.68C10.85 13.93 11.05 13.23 11.41 12.62C13.43 15.1 16.45 16.74 19.86 16.91C19.79 16.61 19.75 16.29 19.75 15.97C19.75 13.71 21.59 11.87 23.85 11.87C25.04 11.87 26.1 12.37 26.85 13.17C27.78 12.98 28.66 12.64 29.45 12.17C29.15 13.13 28.5 13.93 27.65 14.44C28.48 14.34 29.27 14.12 30.01 13.79C29.46 14.62 28.76 15.34 27.96 15.92" />
	</g>
</svg>
